lib/logo_updates/nrk-logo-nrk-p3-urort-title-below.svg

<svg width="267" height="104" viewBox="0 0 267 104" fill="none" xmlns="http://www.w3.org/2000/svg">
<path fill-rule="evenodd" clip-rule="evenodd" d="M0 0H104V104H0V0ZM33.5867 46.2212H24V81.0521H33.5867V46.2212ZM45.7418 46.2212H34.9761C34.9761 46.2212 41.0927 56.2484 41.1616 56.3746C41.6302 57.1697 41.6589 57.6577 41.2013 58.4248L34.9761 68.6159H45.7418C45.7418 68.6159 50.9328 60.1383 51.6427 58.9615C52.3471 57.7841 52.3153 57.0523 51.6142 55.8437C50.8978 54.6249 50.8516 54.5496 46.6384 47.6826L45.7418 46.2212ZM75.8911 46.2212C75.8911 46.2212 79.0949 51.3759 79.4569 51.9918C80.1601 53.2043 80.192 53.9379 79.4849 55.1191C78.9914 55.9379 74.7559 62.947 74.7559 62.947C75.5324 64.2141 76.5667 65.8714 77.4748 67.3264L77.4758 67.3281C78.4079 68.8216 79.2067 70.1015 79.4566 70.5267C80.1598 71.739 80.1917 72.4727 79.4849 73.654C79.3512 73.8757 79.0802 74.3306 78.7247 74.9275L78.7215 74.9329L78.7199 74.9356L78.7165 74.9413L78.7147 74.9442C77.757 76.552 76.1946 79.1747 75.0455 81.0521H65.2092L70.5949 72.2125L65.0088 62.8493L70.0181 54.6518H57.8832L52.8499 46.2212H75.8911ZM57.292 64.1072C55.7761 66.5808 53.2398 70.7253 52.7652 71.5337C52.0878 72.7013 52.0572 73.408 52.7379 74.5456C53.213 75.3341 55.7692 79.5118 57.2924 82C58.8157 79.5114 61.3717 75.3337 61.847 74.5456C62.5277 73.4076 62.4969 72.7013 61.8197 71.5337C61.3443 70.7253 58.8079 66.5808 57.292 64.1072ZM24 21.4683V41.0623H30.4307V21.4683H24ZM42.8782 41.0623L39.1799 24.5868C39.0021 23.7147 38.5295 22.9303 37.8417 22.3653C37.155 21.7756 36.2767 21.4566 35.3716 21.4683H31.4243L35.8403 41.0623H42.8782ZM43.8442 21.4683V41.0623H50.275V21.4683H43.8442ZM53.1591 28.3952C53.7572 28.745 54.4388 28.9263 55.1316 28.9196C55.1315 28.9196 55.1313 28.9196 55.1312 28.9196H55.1321C55.1319 28.9196 55.1318 28.9196 55.1316 28.9196C55.8207 28.9277 56.4987 28.7463 57.0917 28.3952C57.6759 28.0512 58.1609 27.5614 58.4993 26.9739C58.8492 26.3757 59.0306 25.6939 59.0241 25.0008C59.0316 24.312 58.8501 23.6343 58.4993 23.0414C58.1573 22.4603 57.6729 21.9759 57.0917 21.634C56.4986 21.2835 55.8209 21.1021 55.1321 21.1096C54.4392 21.1032 53.7575 21.2845 53.1591 21.634C52.5721 21.9729 52.0824 22.4578 51.7377 23.0414C51.3865 23.6341 51.205 24.312 51.2129 25.0008C51.206 25.6939 51.3874 26.3758 51.7377 26.9739C52.0788 27.564 52.569 28.0542 53.1591 28.3952ZM60.0177 21.4683V41.0623H66.449V21.4683H60.0177ZM75.0044 32.8521C74.7465 32.4204 74.6085 32.195 74.5904 32.176H74.5894C74.3919 31.9116 74.2769 31.5948 74.2587 31.2653C74.2703 30.9514 74.3656 30.6464 74.5347 30.3818L80 21.4679H72.9344C72.4931 22.186 72.0927 22.8392 71.7333 23.4273C71.3757 24.016 70.9943 24.6462 70.5889 25.3177C70.1835 25.9893 69.783 26.647 69.3874 27.2909C68.9918 27.9349 68.6468 28.4914 68.3524 28.9605C68.058 29.4296 67.8556 29.7563 67.7452 29.9403C67.4836 30.3352 67.3314 30.7924 67.304 31.2653C67.3383 31.7581 67.4998 32.2335 67.7728 32.6452C67.8829 32.811 68.0809 33.1331 68.3667 33.6111C68.6513 34.0888 68.9915 34.6453 69.3874 35.2807C69.7833 35.916 70.1838 36.5691 70.5889 37.2401C70.9931 37.9116 71.3745 38.5372 71.7333 39.1167C72.0921 39.6962 72.4925 40.3448 72.9344 41.0623H80C79.4839 40.2163 79.0239 39.4574 78.62 38.7855C78.2146 38.1137 77.782 37.4007 77.3223 36.6467C76.8626 35.8927 76.4258 35.1798 76.0118 34.508C75.5981 33.8358 75.2623 33.2839 75.0044 32.8521Z" fill="white"/>
<path d="M156.159 56.3889C156.185 58.1534 155.976 59.9134 155.538 61.623C155.189 63.0128 154.532 64.3064 153.616 65.4082C152.698 66.4478 151.527 67.2322 150.216 67.6852C148.588 68.2339 146.876 68.4941 145.159 68.454C143.158 68.4994 141.167 68.1476 139.303 67.419C137.665 66.7456 136.322 65.5077 135.518 63.9296C134.557 61.848 134.111 59.5661 134.216 57.276V31.0176H128.006V58.2854C127.94 60.7384 128.394 63.1777 129.338 65.4426C130.144 67.3106 131.405 68.9473 133.005 70.2036C134.615 71.4327 136.455 72.3275 138.417 72.8355C140.539 73.3961 142.727 73.6742 144.922 73.6625C148.22 73.7913 151.497 73.0789 154.444 71.5925C156.852 70.2913 158.787 68.2629 159.974 65.7965C161.231 63.0533 161.848 60.0601 161.777 57.0434V31.0205H156.158L156.159 56.3889Z" fill="white"/>
<path d="M182.951 42.6391C181.845 42.935 180.788 43.3934 179.817 43.9994C178.807 44.6288 177.875 45.3731 177.037 46.2173C176.897 46.3563 176.761 46.513 176.623 46.6589V42.2537L170.59 43.1409V73.008H176.623V50.6648C177.071 50.3513 177.535 50.0608 178.013 49.7944C178.605 49.4691 179.217 49.1826 179.846 48.9369C180.457 48.7003 181.078 48.4933 181.709 48.3159C182.358 48.1352 183.021 48.0066 183.69 47.9314C184.407 47.8528 185.129 47.833 185.849 47.8723L186.559 42.3139C185.347 42.2262 184.128 42.3361 182.951 42.6391Z" fill="white"/>
<path d="M217.431 41.4849L214.119 44.9802C213.684 44.6559 213.23 44.3577 212.759 44.0872C210.287 42.771 207.515 42.1192 204.716 42.1956C201.901 42.1317 199.118 42.8041 196.643 44.1463C194.358 45.4251 192.49 47.3346 191.261 49.6466C189.925 52.2405 189.264 55.1291 189.339 58.0459C189.263 60.9424 189.892 63.814 191.172 66.4136C191.511 67.0573 191.901 67.6731 192.338 68.2549L189.043 71.767L191.763 74.25L194.918 70.8414C195.372 71.1812 195.849 71.4904 196.345 71.767C198.759 73.0339 201.456 73.6646 204.181 73.5994C207.015 73.659 209.816 72.9867 212.314 71.6477C214.648 70.3583 216.566 68.4301 217.843 66.0893C219.235 63.4704 219.928 60.5366 219.854 57.5717C219.922 54.7479 219.282 51.9521 217.991 49.4396C217.64 48.796 217.239 48.1813 216.791 47.6012L220.209 43.9689L217.431 41.4849ZM196.791 51.7176C197.454 50.2365 198.559 48.9969 199.955 48.169C201.427 47.3519 203.091 46.9435 204.775 46.9861C206.113 46.9555 207.444 47.2074 208.678 47.7254C209.343 48.0244 209.957 48.4262 210.497 48.9162L196.737 63.7768C195.971 61.842 195.606 59.7713 195.667 57.691C195.597 55.6414 195.98 53.6016 196.791 51.7176ZM212.404 63.9C211.728 65.4294 210.604 66.7181 209.181 67.5964C207.754 68.4227 206.128 68.8424 204.479 68.8098C202.845 68.848 201.233 68.417 199.836 67.5679C199.443 67.3145 199.075 67.0237 198.737 66.6994L212.504 51.8359C212.709 52.3071 212.883 52.7911 213.025 53.2849C213.415 54.7203 213.604 56.2027 213.587 57.69C213.657 59.8233 213.253 61.9456 212.404 63.904V63.9Z" fill="white"/>
<path d="M239.786 42.6391C238.68 42.9352 237.624 43.3936 236.652 43.9994C235.643 44.6291 234.71 45.3733 233.872 46.2173C233.732 46.3563 233.596 46.513 233.458 46.6589V42.2537L227.426 43.1409V73.008H233.458V50.6648C233.906 50.3513 234.37 50.0608 234.848 49.7944C235.44 49.4691 236.052 49.1826 236.681 48.9369C237.293 48.7003 237.914 48.4933 238.544 48.3159C239.194 48.1354 239.856 48.0068 240.526 47.9314C241.242 47.8528 241.964 47.833 242.684 47.8723L243.394 42.3139C242.182 42.2263 240.963 42.3361 239.786 42.6391Z" fill="white"/>
<path d="M265.455 68.0706C265.178 68.1287 264.873 68.1889 264.538 68.247L263.533 68.4244C263.21 68.482 262.884 68.5215 262.556 68.5427C262.241 68.5634 261.944 68.5723 261.669 68.5723C260.763 68.5976 259.863 68.4155 259.037 68.04C258.327 67.7038 257.739 67.1563 257.352 66.4727C256.937 65.7016 256.734 64.8351 256.76 63.9601V47.5766H265.1L265.751 42.8452H256.76V33.4996L250.728 35.6287V42.8452H246.174L245.523 47.5766H250.728V65.2012C250.701 66.3767 250.881 67.5478 251.26 68.661C251.565 69.5417 252.037 70.3552 252.651 71.0563C253.213 71.6811 253.898 72.1843 254.662 72.5349C255.444 72.8941 256.268 73.1524 257.115 73.3037C257.954 73.4583 258.805 73.5375 259.658 73.5403C260.289 73.5403 260.909 73.5206 261.522 73.4821C262.135 73.4437 262.694 73.3836 263.208 73.3037C263.721 73.2239 264.203 73.1352 264.656 73.0386C265.109 72.942 265.494 72.8513 265.809 72.7714L266.165 67.8636C265.934 67.9514 265.697 68.0206 265.455 68.0706Z" fill="white"/>
</svg>

<svg xmlns="http://www.w3.org/2000/svg" viewBox="0 0 267 104"><path fill="#fff" fill-rule="evenodd" d="M0 0h104v104H0V0Zm33.587 46.221H24v34.831h9.587v-34.83Zm12.155 0H34.976s6.117 10.027 6.186 10.154c.468.795.497 1.283.04 2.05l-6.226 10.19h10.766s5.19-8.477 5.9-9.653c.705-1.178.673-1.91-.028-3.118-.716-1.22-.762-1.294-4.976-8.161l-.896-1.462Zm30.15 0s3.203 5.155 3.565 5.77c.703 1.213.735 1.947.028 3.128l-4.73 7.828c.777 1.267 1.812 2.924 2.72 4.38v.001c.933 1.494 1.732 2.773 1.982 3.199.703 1.212.735 1.946.028 3.127-.134.222-.405.677-.76 1.273l-.003.006-.002.003-.004.005-.001.003a669.71 669.71 0 0 1-3.67 6.108H65.21l5.386-8.84-5.586-9.363 5.01-8.197H57.882l-5.033-8.43H75.89Zm-18.6 17.886c-1.516 2.474-4.052 6.618-4.527 7.427-.677 1.167-.708 1.874-.027 3.012.475.788 3.031 4.966 4.554 7.454 1.524-2.489 4.08-6.666 4.555-7.454.68-1.138.65-1.845-.027-3.012-.476-.809-3.012-4.953-4.528-7.427ZM24 21.468v19.594h6.43V21.468H24Zm18.878 19.594L39.18 24.587a3.878 3.878 0 0 0-1.338-2.222 3.718 3.718 0 0 0-2.47-.897h-3.948l4.416 19.594h7.038Zm.966-19.594v19.594h6.431V21.468h-6.43Zm9.315 6.927c.598.35 1.28.531 1.973.525a3.76 3.76 0 0 0 1.96-.525 3.92 3.92 0 0 0 1.407-1.421c.35-.598.532-1.28.525-1.973a3.767 3.767 0 0 0-.525-1.96 3.968 3.968 0 0 0-1.407-1.407 3.771 3.771 0 0 0-1.96-.524 3.842 3.842 0 0 0-1.973.524 3.938 3.938 0 0 0-1.421 1.407 3.76 3.76 0 0 0-.525 1.96 3.829 3.829 0 0 0 .525 1.973 3.89 3.89 0 0 0 1.421 1.421Zm6.859-6.927v19.594h6.431V21.468h-6.431Zm14.986 11.384a15.153 15.153 0 0 0-.414-.676 1.676 1.676 0 0 1-.331-.91c.011-.315.107-.62.276-.884L80 21.468h-7.066c-.44.718-.841 1.371-1.2 1.96-.358.588-.74 1.218-1.145 1.89a294.72 294.72 0 0 1-2.237 3.642c-.294.47-.496.796-.607.98a2.68 2.68 0 0 0-.441 1.325c.034.493.196.968.469 1.38.11.166.308.488.594.966.284.478.624 1.034 1.02 1.67.396.635.797 1.288 1.202 1.96.404.67.785 1.296 1.144 1.876.36.58.76 1.228 1.201 1.945H80a412.47 412.47 0 0 1-1.38-2.276 550.863 550.863 0 0 0-2.608-4.278c-.414-.672-.75-1.224-1.008-1.656Z" clip-rule="evenodd"/><path fill="#fff" d="M156.159 56.389a19.907 19.907 0 0 1-.621 5.234 9.565 9.565 0 0 1-1.922 3.785 8.037 8.037 0 0 1-3.4 2.277c-1.628.549-3.34.81-5.057.769a15.144 15.144 0 0 1-5.856-1.035 7.41 7.41 0 0 1-3.785-3.49 14.31 14.31 0 0 1-1.302-6.653V31.018h-6.21v27.267a17.389 17.389 0 0 0 1.332 7.158 12.198 12.198 0 0 0 3.667 4.76 15.195 15.195 0 0 0 5.412 2.632c2.122.561 4.31.84 6.505.828a19.459 19.459 0 0 0 9.522-2.07 12.991 12.991 0 0 0 5.53-5.797 19.89 19.89 0 0 0 1.803-8.753V31.02h-5.619l.001 25.369ZM182.951 42.64a11.567 11.567 0 0 0-3.134 1.36 15.372 15.372 0 0 0-2.78 2.217c-.14.14-.276.296-.414.442v-4.405l-6.033.887v29.867h6.033V50.665c.448-.314.912-.604 1.39-.87a15.568 15.568 0 0 1 1.833-.858 20.584 20.584 0 0 1 1.863-.621 12.661 12.661 0 0 1 4.14-.444l.71-5.558a11.225 11.225 0 0 0-3.608.325ZM217.431 41.485l-3.312 3.495a13.643 13.643 0 0 0-1.36-.893 16.176 16.176 0 0 0-8.043-1.891 16.165 16.165 0 0 0-8.073 1.95 13.638 13.638 0 0 0-5.382 5.5 17.368 17.368 0 0 0-1.922 8.4 17.88 17.88 0 0 0 1.833 8.368c.339.643.729 1.26 1.166 1.84l-3.295 3.513 2.72 2.483 3.155-3.409c.454.34.931.65 1.427.926a16.037 16.037 0 0 0 7.836 1.832c2.834.06 5.635-.612 8.133-1.951a14.022 14.022 0 0 0 5.529-5.559 17.232 17.232 0 0 0 2.011-8.517 16.902 16.902 0 0 0-1.863-8.132 13.88 13.88 0 0 0-1.2-1.839l3.418-3.632-2.778-2.484Zm-20.64 10.233a7.858 7.858 0 0 1 3.164-3.549 9.439 9.439 0 0 1 4.82-1.183 9.525 9.525 0 0 1 3.903.74c.665.298 1.279.7 1.819 1.19l-13.76 14.86a15.314 15.314 0 0 1-1.07-6.085c-.07-2.05.313-4.09 1.124-5.973ZM212.404 63.9a8.276 8.276 0 0 1-3.223 3.696 9.027 9.027 0 0 1-4.702 1.214 8.556 8.556 0 0 1-4.643-1.242 7.306 7.306 0 0 1-1.099-.869l13.767-14.863c.205.471.379.955.521 1.449.39 1.435.579 2.918.562 4.405a14.433 14.433 0 0 1-1.183 6.214V63.9ZM239.786 42.64a11.593 11.593 0 0 0-3.134 1.36 15.428 15.428 0 0 0-2.78 2.217c-.14.14-.276.296-.414.442v-4.405l-6.032.887v29.867h6.032V50.665c.448-.314.912-.604 1.39-.87a15.568 15.568 0 0 1 1.833-.858 20.794 20.794 0 0 1 1.863-.621 12.72 12.72 0 0 1 4.14-.444l.71-5.558a11.228 11.228 0 0 0-3.608.325ZM265.455 68.07c-.277.059-.582.119-.917.177l-1.005.177a8.795 8.795 0 0 1-.977.119c-.315.02-.612.03-.887.03a5.958 5.958 0 0 1-2.632-.533 3.81 3.81 0 0 1-1.685-1.567 4.987 4.987 0 0 1-.592-2.513V47.577h8.34l.651-4.732h-8.991V33.5l-6.032 2.129v7.216h-4.554l-.651 4.732h5.205V65.2a10.02 10.02 0 0 0 .532 3.46c.305.88.777 1.694 1.391 2.395a6.162 6.162 0 0 0 2.011 1.479c.782.36 1.606.617 2.453.769.839.154 1.69.233 2.543.236.631 0 1.251-.02 1.864-.058a18.515 18.515 0 0 0 1.686-.178c.513-.08.995-.169 1.448-.265a31.13 31.13 0 0 0 1.153-.268l.356-4.907a4.638 4.638 0 0 1-.71.207Z"/></svg>
